X:567
T: Manshan cuizhu qingyouqing
N: C1987
O: China, Fujian Liancheng
S: II, 562 ]
R: Shange, Xinquan shange]
M: 2/4
L: 1/16
K: D
e2e2ed3 | e2dee3BA4
d2e2ed2e | d2BAB4- | B8 | A2A6- | A4z4
e2e2ed3 | d2e2e3BA4
d2e2d2de | d3dB4- | B8 | A2A6- | A4z4

